X: 400
T:Nymphes des bois / Requiem
N: Derived from Jos2918-Nymphes_des_bois__Requiem.krn
C: Josquin des Prez
%%abc-version 2.0
%%abcx-abcm2ps-target-version 5.9.1 (29 Sep 2008)
%%abc-creator hum2abc beta
%%abcx-conversion-date 2019/02/12 16:15:55
%%abc-edited-by Jesse Rodin
%%abc-edited-by Will Watson 11/07/2011
%%abcx-initial-encoding-date 2011/07/11/
%%humdrum-veritas 664780747
%%humdrum-veritas-data 395652453
%%linebreak <none>
%%barnumbers 0
L: 1/4
M: 2/1
Q: 1/2=120
V: 1 clef=treble
V: 2 clef=treble-8
V: 3 clef=treble-8
V: 4 clef=bass
V: 5 clef=bass
K: C
[V:1] E8 | 
[V:2] e8 | 
[V:3] z8 | 
[V:4] E,8- | 
[V:5] z8 | 
[V:1] G8 | 
[V:2] e8 | 
[V:3] z8 | 
[V:4] E,8 | 
[V:5] z8 | 
[V:1] A6B2 | 
[V:2] A8 | 
[V:3] z8 | 
[V:4] F,8 | 
[V:5] z8 | 
[V:1] c8- | 
[V:2] e8- | 
[V:3] A8 | 
[V:4] E,8 | 
[V:5] A,,8 | 
[V:1] c8 | 
[V:2] e8 | 
[V:3] A8 | 
[V:4] E,8 | 
[V:5] A,,8 | 
[V:1] d8 | 
[V:2] d8 | 
[V:3] D8 | 
[V:4] z8 | 
[V:5] B,,8 | 
[V:1] c4c4 | 
[V:2] e8 | 
[V:3] A8- | 
[V:4] E,8- | 
[V:5] A,,8- | 
[V:1] c4A4 | 
[V:2] c8 | 
[V:3] A8 | 
[V:4] E,4F,4 | 
[V:5] A,,8 | 
[V:1] B8- | 
[V:2] d8 | 
[V:3] z8 | 
[V:4] G,8 | 
[V:5] z8 | 
[V:1] B8 | 
[V:2] d8- | 
[V:3] z8 | 
[V:4] G,8 | 
[V:5] z4G,,4 | 
[V:1] A8- | 
[V:2] d4e4 | 
[V:3] A8 | 
[V:4] F,4E,4 | 
[V:5] D,4C,4 | 
[V:1] A8 | 
[V:2] d4f4- | 
[V:3] A4A4 | 
[V:4] F,8 | 
[V:5] D,8 | 
[V:1] z8 | 
[V:2] f2e2d4 | 
[V:3] A4_B4- | 
[V:4] F,8 | 
[V:5] D,8 | 
[V:1] z8 | 
[V:2] c8 | 
[V:3] B2A2A4- | 
[V:4] E,8 | 
[V:5] A,,4C,4 | 
[V:1] z8 | 
[V:2] d8 | 
[V:3] A4G4 | 
[V:4] z8 | 
[V:5] _B,,8 | 
[V:1] c8 | 
[V:2] c4z4 | 
[V:3] A6B2 | 
[V:4] E,8- | 
[V:5] A,,8- | 
[V:1] c4c4 | 
[V:2] A8 | 
[V:3] c8 | 
[V:4] E,4F,4 | 
[V:5] A,,8 | 
[V:1] B6G2 | 
[V:2] B8 | 
[V:3] d8 | 
[V:4] G,8 | 
[V:5] G,,8 | 
[V:1] G4G4 | 
[V:2] B8 | 
[V:3] d8- | 
[V:4] G,8 | 
[V:5] G,,4G,,4 | 
[V:1] A6G2 | 
[V:2] A8 | 
[V:3] d4d4 | 
[V:4] F,8- | 
[V:5] D,8 | 
[V:1] F4F4 | 
[V:2] z4D4 | 
[V:3] A6B2 | 
[V:4] F,8 | 
[V:5] D,8 | 
[V:1] E8- | 
[V:2] E4C4 | 
[V:3] c8 | 
[V:4] G,8 | 
[V:5] C,6C,2 | 
[V:1] E8 | 
[V:2] E4E4 | 
[V:3] z4c4 | 
[V:4] G,8 | 
[V:5] C,4C,4 | 
[V:1] z8 | 
[V:2] D8 | 
[V:3] d6c2 | 
[V:4] _B,8 | 
[V:5] G,,8- | 
[V:1] z8 | 
[V:2] d8 | 
[V:3] _B4_B4 | 
[V:4] G,8 | 
[V:5] G,,8 | 
[V:1] F8 | 
[V:2] d4d4 | 
[V:3] A8 | 
[V:4] F,8- | 
[V:5] D,8 | 
[V:1] F4F4 | 
[V:2] A6B2 | 
[V:3] z4D4 | 
[V:4] F,8 | 
[V:5] D,4D,4 | 
[V:1] E8 | 
[V:2] c8 | 
[V:3] E4C4 | 
[V:4] G,8- | 
[V:5] C,6B,,2 | 
[V:1] D8 | 
[V:2] z4B4 | 
[V:3] D8 | 
[V:4] G,8- | 
[V:5] G,,8 | 
[V:1] G8 | 
[V:2] B4B4 | 
[V:3] E4D4 | 
[V:4] G,8- | 
[V:5] z4G,,4 | 
[V:1] G4G4 | 
[V:2] c6d2 | 
[V:3] E4E4 | 
[V:4] G,8- | 
[V:5] C,4C,4 | 
[V:1] G6A2 | 
[V:2] e4e4 | 
[V:3] E4C4 | 
[V:4] G,8- | 
[V:5] C,4C,4 | 
[V:1] B4B4 | 
[V:2] d8 | 
[V:3] D8 | 
[V:4] G,8 | 
[V:5] B,,8 | 
[V:1] c6B2 | 
[V:2] c8- | 
[V:3] E8 | 
[V:4] A,8- | 
[V:5] A,,8- | 
[V:1] A4G2F2 | 
[V:2] c8 | 
[V:3] z4c4 | 
[V:4] A,8 | 
[V:5] A,,8 | 
[V:1] E4z4 | 
[V:2] z4e4 | 
[V:3] c4c4 | 
[V:4] G,8- | 
[V:5] C,8 | 
[V:1] G8 | 
[V:2] e4e4 | 
[V:3] G8 | 
[V:4] G,8- | 
[V:5] C,4C,4 | 
[V:1] G4G4 | 
[V:2] d8 | 
[V:3] z4G4 | 
[V:4] G,8- | 
[V:5] G,,8 | 
[V:1] D8 | 
[V:2] z4B4 | 
[V:3] d6d2 | 
[V:4] G,8 | 
[V:5] z4G,,4 | 
[V:1] z4D4 | 
[V:2] A4A4 | 
[V:3] d4d4 | 
[V:4] F,8- | 
[V:5] D,6D,2 | 
[V:1] A6A2 | 
[V:2] d4d4 | 
[V:3] A8- | 
[V:4] F,8 | 
[V:5] D,4D,4 | 
[V:1] A4A4 | 
[V:2] c8 | 
[V:3] A8 | 
[V:4] z4E,4 | 
[V:5] A,,8- | 
[V:1] E8 | 
[V:2] C8 | 
[V:3] c8 | 
[V:4] E,6F,2 | 
[V:5] A,,8 | 
[V:1] z8 | 
[V:2] D8 | 
[V:3] _B8- | 
[V:4] G,4F,4- | 
[V:5] _B,,6A,,2 | 
[V:1] z8 | 
[V:2] _B,8 | 
[V:3] B8 | 
[V:4] F,4E,4 | 
[V:5] G,,8 | 
[V:1] A8 | 
[V:2] C8 | 
[V:3] A8- | 
[V:4] F,8 | 
[V:5] F,,8- | 
[V:1] A4A4 | 
[V:2] c8 | 
[V:3] A8 | 
[V:4] F,8 | 
[V:5] F,,8 | 
[V:1] G8- | 
[V:2] c4c4 | 
[V:3] e8 | 
[V:4] E,8- | 
[V:5] C,8 | 
[V:1] G8 | 
[V:2] c8 | 
[V:3] e4e4 | 
[V:4] E,8 | 
[V:5] C,4C,4 | 
[V:1] F8 | 
[V:2] z4A4 | 
[V:3] d8 | 
[V:4] z8 | 
[V:5] D,8 | 
[V:1] z4F4 | 
[V:2] _B4A4 | 
[V:3] z4d4 | 
[V:4] z8 | 
[V:5] z4D,4 | 
[V:1] G4G4 | 
[V:2] G6F2 | 
[V:3] c6B2 | 
[V:4] z8 | 
[V:5] E,6D,2 | 
[V:1] A4B4 | 
[V:2] E4D4 | 
[V:3] A4G4 | 
[V:4] z8 | 
[V:5] C,4B,,4 | 
[V:1] c8 | 
[V:2] C8 | 
[V:3] ^F2E2^F4 | 
[V:4] z8 | 
[V:5] A,,8 | 
[V:1] B8- | 
[V:2] D8 | 
[V:3] G4d4 | 
[V:4] G,8 | 
[V:5] G,,8 | 
[V:1] B4c4 | 
[V:2] E4C4 | 
[V:3] B4e4- | 
[V:4] G,4E,4 | 
[V:5] z8 | 
[V:1] A8- | 
[V:2] D8 | 
[V:3] e2c2d4 | 
[V:4] F,8 | 
[V:5] z8 | 
[V:1] A8 | 
[V:2] A8 | 
[V:3] e4z4 | 
[V:4] E,8- | 
[V:5] A,,8 | 
[V:1] c8 | 
[V:2] A4A4 | 
[V:3] e8 | 
[V:4] E,8- | 
[V:5] A,,4A,,4 | 
[V:1] c4c4 | 
[V:2] G8- | 
[V:3] e8- | 
[V:4] E,8 | 
[V:5] C,6D,2 | 
[V:1] B6G2 | 
[V:2] G8 | 
[V:3] e4e4 | 
[V:4] z8 | 
[V:5] E,8 | 
[V:1] G8 | 
[V:2] z4G4 | 
[V:3] e6d2 | 
[V:4] z8 | 
[V:5] z4E,4 | 
[V:1] z8 | 
[V:2] A6G2 | 
[V:3] c2B2A4 | 
[V:4] z8 | 
[V:5] F,6E,2 | 
[V:1] z8 | 
[V:2] F4E4 | 
[V:3] z4A4- | 
[V:4] z8 | 
[V:5] D,4C,4 | 
[V:1] z4B4 | 
[V:2] D8 | 
[V:3] A4^G4 | 
[V:4] z8 | 
[V:5] B,,8 | 
[V:1] c6B2 | 
[V:2] E8 | 
[V:3] A6B2 | 
[V:4] z8 | 
[V:5] A,,8 | 
[V:1] A4G4 | 
[V:2] z8 | 
[V:3] c2d2e4- | 
[V:4] z8 | 
[V:5] z8 | 
[V:1] F8 | 
[V:2] z8 | 
[V:3] e2c2d4 | 
[V:4] z8 | 
[V:5] z8 | 
[V:1] E4z4 | 
[V:2] c8 | 
[V:3] e8- | 
[V:4] G,8- | 
[V:5] C,8 | 
[V:1] G8 | 
[V:2] c4c4 | 
[V:3] e8 | 
[V:4] G,8 | 
[V:5] C,4C,4 | 
[V:1] A6B2 | 
[V:2] c8 | 
[V:3] A8 | 
[V:4] F,8- | 
[V:5] F,,8 | 
[V:1] c4c4 | 
[V:2] z4c4 | 
[V:3] A4A4 | 
[V:4] F,8- | 
[V:5] z4F,,4 | 
[V:1] F4F4 | 
[V:2] d6d2 | 
[V:3] _B4_B4 | 
[V:4] F,8 | 
[V:5] _B,,4B,,4 | 
[V:1] _B4B4 | 
[V:2] d4d4 | 
[V:3] _B4B,4 | 
[V:4] G,8 | 
[V:5] G,,4G,,4 | 
[V:1] _B4B4 | 
[V:2] d8 | 
[V:3] D4D4 | 
[V:4] F,8- | 
[V:5] _B,,6A,,2 | 
[V:1] A8 | 
[V:2] c8- | 
[V:3] F6E2 | 
[V:4] F,8 | 
[V:5] F,,8 | 
[V:1] G8- | 
[V:2] c8 | 
[V:3] C8 | 
[V:4] E,8 | 
[V:5] z8 | 
[V:1] G8 | 
[V:2] B8 | 
[V:3] z4G4- | 
[V:4] E,8 | 
[V:5] z8 | 
[V:1] E8 | 
[V:2] G8 | 
[V:3] G4E4 | 
[V:4] z8 | 
[V:5] C,8 | 
[V:1] E4E4 | 
[V:2] c8 | 
[V:3] E4A4- | 
[V:4] z8 | 
[V:5] A,,4A,,4 | 
[V:1] F8 | 
[V:2] A4A4 | 
[V:3] A4F4 | 
[V:4] z8 | 
[V:5] D,8 | 
[V:1] D8 | 
[V:2] B8 | 
[V:3] G4G4 | 
[V:4] z8 | 
[V:5] z4G,,4 | 
[V:1] E4E4 | 
[V:2] z4G4 | 
[V:3] E4C4 | 
[V:4] G,8- | 
[V:5] C,6C,2 | 
[V:1] E4E4 | 
[V:2] c4c4 | 
[V:3] E8 | 
[V:4] G,8 | 
[V:5] C,4C,4 | 
[V:1] F6D2 | 
[V:2] A4A4 | 
[V:3] D8- | 
[V:4] F,8 | 
[V:5] D,8 | 
[V:1] D8- | 
[V:2] B6G2 | 
[V:3] D8 | 
[V:4] G,8 | 
[V:5] G,,8- | 
[V:1] D8 | 
[V:2] G8 | 
[V:3] z4G4- | 
[V:4] G,4_B,4- | 
[V:5] G,,8 | 
[V:1] z8 | 
[V:2] d8- | 
[V:3] G4F4 | 
[V:4] B,4A,4 | 
[V:5] z8 | 
[V:1] z8 | 
[V:2] d8 | 
[V:3] _B8 | 
[V:4] G,8 | 
[V:5] G,,8 | 
[V:1] A8 | 
[V:2] z4d4 | 
[V:3] z4A4 | 
[V:4] F,8- | 
[V:5] D,8- | 
[V:1] A4A4 | 
[V:2] d4d4 | 
[V:3] A4A4 | 
[V:4] F,8 | 
[V:5] D,4D,4 | 
[V:1] B8 | 
[V:2] D8 | 
[V:3] d8 | 
[V:4] G,8 | 
[V:5] B,,8 | 
[V:1] c8 | 
[V:2] E8 | 
[V:3] c8 | 
[V:4] A,8- | 
[V:5] A,,8- | 
[V:1] c6c2 | 
[V:2] C4C4 | 
[V:3] e8- | 
[V:4] A,8 | 
[V:5] A,,8 | 
[V:1] c4c4 | 
[V:2] E6F2 | 
[V:3] e4e4 | 
[V:4] G,8- | 
[V:5] C,6C,2 | 
[V:1] B8 | 
[V:2] G4D4- | 
[V:3] d4d4 | 
[V:4] G,8 | 
[V:5] G,,4G,,4 | 
[V:1] A8 | 
[V:2] D4A4- | 
[V:3] f6e2 | 
[V:4] F,8 | 
[V:5] D,8 | 
[V:1] c6B2 | 
[V:2] A4E4 | 
[V:3] c8 | 
[V:4] E,8- | 
[V:5] A,,4C,4- | 
[V:1] G4A4 | 
[V:2] c8 | 
[V:3] z4C4 | 
[V:4] E,4F,4 | 
[V:5] C,2B,,2A,,4 | 
[V:1] B8 | 
[V:2] B4d4- | 
[V:3] D6E2 | 
[V:4] G,8 | 
[V:5] G,,4G,,4 | 
[V:1] A8 | 
[V:2] d2e2f2d2 | 
[V:3] F2G2A4- | 
[V:4] F,8 | 
[V:5] D,8 | 
[V:1] c6B2 | 
[V:2] c4A4- | 
[V:3] A2B2c4- | 
[V:4] E,8 | 
[V:5] A,,8 | 
[V:1] A4G4 | 
[V:2] A2B2c4 | 
[V:3] c2d2e4- | 
[V:4] F,4E,4 | 
[V:5] z8 | 
[V:1] A8 | 
[V:2] A6B2 | 
[V:3] e4d4 | 
[V:4] F,8 | 
[V:5] z8 | 
[V:1] G4E4- | 
[V:2] c4G4 | 
[V:3] e6d2 | 
[V:4] E,8- | 
[V:5] C,6B,,2 | 
[V:1] E4E4 | 
[V:2] A4B4 | 
[V:3] c4B4 | 
[V:4] E,8- | 
[V:5] A,,4G,,4 | 
[V:1] E4E4 | 
[V:2] c8 | 
[V:3] A8 | 
[V:4] E,8- | 
[V:5] A,,8 | 
[V:1] G6E2 | 
[V:2] B8- | 
[V:3] G8- | 
[V:4] E,8- | 
[V:5] E,,8- | 
[V:1] E8 ||  
[V:2] B8 ||  
[V:3] G8 ||  
[V:4] E,8 ||  
[V:5] E,,8 ||  
[V:1] G8 | 
[V:2] e8 | 
[V:3] c8 | 
[V:4] z8 | 
[V:5] E,8 | 
[V:1] G4G4 | 
[V:2] e4e4 | 
[V:3] B4G4 | 
[V:4] z8 | 
[V:5] E,4E,4 | 
[V:1] A8- | 
[V:2] f8- | 
[V:3] d8 | 
[V:4] z8 | 
[V:5] D,8- | 
[V:1] A4A4 | 
[V:2] f4f4 | 
[V:3] d8 | 
[V:4] z8 | 
[V:5] D,4D,4 | 
[V:1] c6B2 | 
[V:2] e4c4 | 
[V:3] c4A4- | 
[V:4] z8 | 
[V:5] A,6G,2 | 
[V:1] A4A4 | 
[V:2] d8 | 
[V:3] A2G2A4 | 
[V:4] z8 | 
[V:5] F,4F,4 | 
[V:1] G8 | 
[V:2] e8- | 
[V:3] B8 | 
[V:4] z8 | 
[V:5] E,8- | 
[V:1] B8 | 
[V:2] e8 | 
[V:3] z4e4- | 
[V:4] z8 | 
[V:5] E,8 | 
[V:1] c8 | 
[V:2] z4e4 | 
[V:3] e4c4- | 
[V:4] z8 | 
[V:5] A,8 | 
[V:1] A8 | 
[V:2] f8 | 
[V:3] c4d4- | 
[V:4] z8 | 
[V:5] F,8 | 
[V:1] B8 | 
[V:2] d8 | 
[V:3] d4B4- | 
[V:4] z8 | 
[V:5] G,8 | 
[V:1] G8 | 
[V:2] e8 | 
[V:3] B4c4- | 
[V:4] z8 | 
[V:5] E,8 | 
[V:1] A8 | 
[V:2] c8 | 
[V:3] c4A4- | 
[V:4] z8 | 
[V:5] F,8 | 
[V:1] F8 | 
[V:2] d4d4 | 
[V:3] A4_B4 | 
[V:4] z8 | 
[V:5] D,4D,4 | 
[V:1] G6E2 | 
[V:2] B8 | 
[V:3] G8 | 
[V:4] z8 | 
[V:5] E,8 | 
[V:1] E8 | 
[V:2] c8 | 
[V:3] A8 | 
[V:4] z8 | 
[V:5] A,,8 | 
[V:1] G8 | 
[V:2] e8 | 
[V:3] c8 | 
[V:4] z8 | 
[V:5] E,8 | 
[V:1] G4G4 | 
[V:2] e4e4 | 
[V:3] B4G4 | 
[V:4] z8 | 
[V:5] E,4E,4 | 
[V:1] A8- | 
[V:2] f8- | 
[V:3] d8 | 
[V:4] z8 | 
[V:5] D,8- | 
[V:1] A4A4 | 
[V:2] f4f4 | 
[V:3] d8 | 
[V:4] z8 | 
[V:5] D,4D,4 | 
[V:1] c6B2 | 
[V:2] e4c4 | 
[V:3] c4A4- | 
[V:4] z8 | 
[V:5] A,6G,2 | 
[V:1] A4A4 | 
[V:2] d8 | 
[V:3] A2G2A4 | 
[V:4] z8 | 
[V:5] F,4F,4 | 
[V:1] G8 | 
[V:2] e8- | 
[V:3] B8 | 
[V:4] z8 | 
[V:5] E,8- | 
[V:1] B8 | 
[V:2] e8 | 
[V:3] z4e4- | 
[V:4] z8 | 
[V:5] E,8 | 
[V:1] c8 | 
[V:2] z4e4 | 
[V:3] e4c4- | 
[V:4] z8 | 
[V:5] A,8 | 
[V:1] A8 | 
[V:2] f8 | 
[V:3] c4d4- | 
[V:4] z8 | 
[V:5] F,8 | 
[V:1] B8 | 
[V:2] d8 | 
[V:3] d4B4- | 
[V:4] z8 | 
[V:5] G,8 | 
[V:1] G8 | 
[V:2] e8 | 
[V:3] B4c4- | 
[V:4] z8 | 
[V:5] E,8 | 
[V:1] A8 | 
[V:2] c8 | 
[V:3] c4A4- | 
[V:4] z8 | 
[V:5] F,8 | 
[V:1] F8 | 
[V:2] d4d4 | 
[V:3] A4_B4 | 
[V:4] z8 | 
[V:5] D,4D,4 | 
[V:1] G6E2 | 
[V:2] B8 | 
[V:3] G8 | 
[V:4] z8 | 
[V:5] E,8 | 
[V:1] E8 | 
[V:2] c8 | 
[V:3] A8 | 
[V:4] z8 | 
[V:5] A,,8 | 
[V:1] G8 | 
[V:2] B8 | 
[V:3] G8 | 
[V:4] E8 | 
[V:5] E,8 | 
[V:1] G4G4 | 
[V:2] c4c4 | 
[V:3] E4E4 | 
[V:4] E4E4 | 
[V:5] C,4C,4 | 
[V:1] c4c4 | 
[V:2] c4c4 | 
[V:3] A4A4 | 
[V:4] E4E4 | 
[V:5] A,,4A,,4 | 
[V:1] G6A2 | 
[V:2] c8 | 
[V:3] E6F2 | 
[V:4] E8 | 
[V:5] C,8 | 
[V:1] B8 | 
[V:2] B8 | 
[V:3] G8- | 
[V:4] D8 | 
[V:5] G,,8- | 
[V:1] d8- | 
[V:2] B8- | 
[V:3] G8 | 
[V:4] D8 | 
[V:5] G,,8 | 
[V:1] d4B4 | 
[V:2] B8 | 
[V:3] z8 | 
[V:4] D8 | 
[V:5] G,8- | 
[V:1] B8 | 
[V:2] z8 | 
[V:3] G8- | 
[V:4] E8- | 
[V:5] G,4E,4 | 
[V:1] G8- | 
[V:2] B8 | 
[V:3] G4E4 | 
[V:4] E8 | 
[V:5] E,8 | 
[V:1] G4E4 | 
[V:2] c8 | 
[V:3] E8- | 
[V:4] E8- | 
[V:5] z4C,4- | 
[V:1] E8- | 
[V:2] c8- | 
[V:3] E8- | 
[V:4] E8- | 
[V:5] C,4A,,4 | 
[V:1] E8- | 
[V:2] c8 | 
[V:3] E8- | 
[V:4] E8- | 
[V:5] A,,8 | 
[V:1] E8- | 
[V:2] B8 | 
[V:3] E8- | 
[V:4] E8- | 
[V:5] E,,8- | 
[V:1] E8 |]  
[V:2] B8 |]  
[V:3] E8 |]  
[V:4] E8 |]  
[V:5] E,,8 |]  



